X:1
T:Title
L:1/8
M:4/4
I:linebreak $
K:G
V:1 treble nm="Fiddle" snm="Fiddle"
V:1
 Bc | d4 d2 Bc | d2 B2 AGAB | c2 AB | c2 B2 AGEG |$ DEGA Bdef | g2 f2 edBA | G2 BG AG F2 | G6 ::$ %9
 Bc | d4 g4 | g2 f2 e2 d2 | fa- a2 a2 fg | a2 f2 edef |$ gfef gfef | g2 f2 edBA | G2 BG AG F2 | %17
 G6 :| %18
